assets/images/donate/payments/paypal.svg

<svg width="165" height="41" viewBox="0 0 165 41" fill="none" xmlns="http://www.w3.org/2000/svg">
<g opacity="0.5">
<path fill-rule="evenodd" clip-rule="evenodd" d="M30.797 10.9097C30.7602 11.1452 30.7194 11.3848 30.6709 11.6317C29.0454 19.9796 23.4826 22.8656 16.378 22.8656H12.7602C11.8923 22.8656 11.1594 23.4975 11.024 24.3549L8.64624 39.4301C8.55776 39.9917 8.9921 40.5 9.56059 40.5H15.9763C16.7355 40.5 17.382 39.9477 17.5004 39.1973L17.5634 38.8713L18.7719 31.2074L18.8499 30.784C18.9683 30.0337 19.6147 29.4814 20.3739 29.4814H21.3335C27.5489 29.4814 32.4155 26.9561 33.8378 19.6535C34.4317 16.6022 34.1246 14.0551 32.5533 12.2644C32.0782 11.723 31.4866 11.2749 30.797 10.9097Z" fill="#2790C3"/>
<path fill-rule="evenodd" clip-rule="evenodd" d="M30.797 10.9097C30.7602 11.1452 30.7194 11.3848 30.6709 11.6317C29.0454 19.9796 23.4826 22.8656 16.378 22.8656H12.7602C11.8923 22.8656 11.1594 23.4975 11.024 24.3549L8.64624 39.4301C8.55776 39.9917 8.9921 40.5 9.56059 40.5H15.9763C16.7355 40.5 17.382 39.9477 17.5004 39.1973L17.5634 38.8713L18.7719 31.2074L18.8499 30.784C18.9683 30.0337 19.6147 29.4814 20.3739 29.4814H21.3335C27.5489 29.4814 32.4155 26.9561 33.8378 19.6535C34.4317 16.6022 34.1246 14.0551 32.5533 12.2644C32.0782 11.723 31.4866 11.2749 30.797 10.9097Z" fill="white"/>
</g>
<path d="M30.7676 10.8931L30.7991 10.9096C31.2832 7.82399 30.7959 5.72419 29.1268 3.82237C27.2892 1.72863 23.9696 0.831665 19.7223 0.831665H7.39305C6.52517 0.831665 5.78618 1.46318 5.65083 2.32055L0.51709 34.8753C0.415676 35.5177 0.912242 36.0983 1.56234 36.0983H9.17175L11.024 24.3549C11.1594 23.4975 11.8923 22.8656 12.7602 22.8656H16.378C23.4826 22.8656 29.0454 19.9796 30.6709 11.6317C30.7171 11.3963 30.7564 11.1676 30.7918 10.9427C30.7886 10.941 30.7854 10.9393 30.7822 10.9376L30.7656 10.9287L30.7652 10.9085L30.7676 10.8931Z" fill="white"/>
<path fill-rule="evenodd" clip-rule="evenodd" d="M62.2932 9.7024H53.3029C52.6884 9.7024 52.1652 10.1497 52.0694 10.7569L48.4338 33.8087C48.3623 34.2632 48.7138 34.6745 49.174 34.6745H53.4666C54.0811 34.6745 54.6047 34.2272 54.7005 33.6204L55.6815 27.4014C55.7769 26.7941 56.3005 26.3468 56.9151 26.3468H59.7599C65.6811 26.3468 69.0989 23.481 69.9922 17.8014C70.3942 15.3173 70.0084 13.3654 68.8452 11.999C67.5664 10.4967 65.3005 9.7024 62.2932 9.7024ZM63.3304 18.1214C62.8391 21.3485 60.3744 21.3485 57.991 21.3485H56.6346L57.5858 15.3234C57.6435 14.9594 57.9575 14.6911 58.326 14.6911H58.9478C60.5704 14.6911 62.1033 14.6911 62.8932 15.6155C63.3664 16.1687 63.5094 16.9885 63.3304 18.1214Z" fill="white"/>
<path fill-rule="evenodd" clip-rule="evenodd" d="M84.8586 18.0184H89.1633C89.6239 18.0184 89.9754 18.4293 89.9035 18.8842L87.5762 33.6204C87.4804 34.2276 86.9572 34.6745 86.3427 34.6745H82.4659C82.0053 34.6745 81.6538 34.2628 81.7257 33.8078L81.918 32.6115C81.918 32.6115 79.7919 35.0741 75.9584 35.0741C73.7249 35.0741 71.8501 34.4309 70.5366 32.8854C69.1067 31.2034 68.5224 28.7937 68.9342 26.2721C69.7249 21.2171 73.7875 17.6131 78.5435 17.6131C80.6182 17.6131 82.6958 18.0652 83.6279 19.4184L83.9289 19.8547L84.1184 18.6511C84.1758 18.2862 84.4897 18.0184 84.8586 18.0184ZM78.3051 30.508C80.7956 30.508 82.7483 28.8567 83.1641 26.3969C83.3528 25.207 83.0938 24.1258 82.4344 23.3529C81.779 22.5856 80.7867 22.18 79.5641 22.18C77.1115 22.18 75.1277 23.8846 74.7398 26.3222C74.5382 27.5182 74.7778 28.5921 75.4146 29.346C76.057 30.1064 77.0566 30.508 78.3051 30.508Z" fill="white"/>
<path d="M112.091 18.0183H107.764C107.35 18.0183 106.963 18.2236 106.731 18.5658L100.762 27.3565L98.2328 18.9093C98.0748 18.3808 97.5883 18.0183 97.0364 18.0183H92.7831C92.2695 18.0183 91.9079 18.5234 92.0736 19.0095L96.838 32.9941L92.3568 39.3173C92.0049 39.8135 92.36 40.5 92.9681 40.5H97.2909C97.7006 40.5 98.0841 40.2991 98.3176 39.9622L112.707 19.1949C113.051 18.6979 112.696 18.0183 112.091 18.0183Z" fill="white"/>
<path fill-rule="evenodd" clip-rule="evenodd" d="M127.449 18.1214C126.957 21.3485 124.493 21.3485 122.109 21.3485H120.752L121.704 15.3234C121.761 14.9594 122.075 14.6911 122.444 14.6911H123.066C124.688 14.6911 126.221 14.6911 127.011 15.6155C127.484 16.1687 127.627 16.9885 127.449 18.1214ZM126.411 9.70241H117.421C116.806 9.70241 116.283 10.1497 116.187 10.757L112.552 33.8087C112.48 34.2632 112.832 34.6745 113.292 34.6745H117.905C118.335 34.6745 118.701 34.3614 118.768 33.9363L119.799 27.4014C119.895 26.7941 120.418 26.3468 121.033 26.3468H123.878C129.799 26.3468 133.217 23.481 134.11 17.8014C134.512 15.3174 134.126 13.3654 132.963 11.999C131.684 10.4968 129.419 9.70241 126.411 9.70241Z" fill="white"/>
<path fill-rule="evenodd" clip-rule="evenodd" d="M147.282 26.3969C146.866 28.8567 144.914 30.5081 142.423 30.5081C141.174 30.5081 140.175 30.1064 139.532 29.346C138.895 28.5921 138.656 27.5182 138.858 26.3222C139.245 23.8846 141.229 22.18 143.682 22.18C144.904 22.18 145.897 22.5856 146.552 23.3529C147.211 24.1258 147.47 25.207 147.282 26.3969ZM153.281 18.0184H148.976C148.607 18.0184 148.293 18.2862 148.236 18.6511L148.047 19.8547L147.746 19.4184C146.813 18.0652 144.736 17.6131 142.661 17.6131C137.906 17.6131 133.843 21.2171 133.052 26.2721C132.641 28.7937 133.225 31.2034 134.654 32.8854C135.968 34.4309 137.843 35.0741 140.076 35.0741C143.91 35.0741 146.036 32.6115 146.036 32.6115L145.844 33.8079C145.771 34.2628 146.123 34.6745 146.584 34.6745H150.46C151.075 34.6745 151.598 34.2277 151.694 33.6204L154.021 18.8842C154.093 18.4293 153.742 18.0184 153.281 18.0184Z" fill="white"/>
<path fill-rule="evenodd" clip-rule="evenodd" d="M158.355 10.3355L154.665 33.8087C154.594 34.2636 154.945 34.6745 155.405 34.6745H159.116C159.731 34.6745 160.254 34.2273 160.35 33.6204L163.988 10.5687C164.06 10.1137 163.708 9.70241 163.248 9.70241H159.095C158.726 9.70241 158.412 9.97109 158.355 10.3355Z" fill="white"/>
<path fill-rule="evenodd" clip-rule="evenodd" d="M29.0931 10.2317C28.8454 10.159 28.5896 10.094 28.3258 10.0354C28.062 9.97679 27.7908 9.92507 27.5121 9.88022C26.5359 9.72305 25.4684 9.6479 24.3234 9.6479H14.6591C14.422 9.6479 14.1957 9.70204 13.9929 9.79901C13.5472 10.0127 13.2163 10.435 13.1351 10.9509L11.0809 23.9748L11.0216 24.355C11.1569 23.4976 11.8898 22.8657 12.7577 22.8657H16.3755C23.4801 22.8657 29.043 19.9796 30.6684 11.6317C30.7169 11.3849 30.7577 11.1453 30.7945 10.9097C30.384 10.6923 29.9379 10.5049 29.4587 10.3457C29.3387 10.3057 29.2171 10.2677 29.0931 10.2317Z" fill="white"/>
</svg>

<svg width="165" height="41" fill="none" xmlns="http://www.w3.org/2000/svg"><g opacity=".5" fill-rule="evenodd" clip-rule="evenodd"><path d="M30.797 10.91a18.72 18.72 0 0 1-.126.722c-1.626 8.348-7.188 11.234-14.293 11.234H12.76c-.868 0-1.6.631-1.736 1.489L8.646 39.43a.926.926 0 0 0 .915 1.07h6.415c.76 0 1.406-.552 1.524-1.303l.063-.326 1.209-7.664.078-.423a1.543 1.543 0 0 1 1.524-1.303h.96c6.215 0 11.082-2.525 12.504-9.828.594-3.05.287-5.598-1.285-7.389-.475-.541-1.066-.99-1.756-1.354z" fill="#2790C3"/><path d="M30.797 10.91a18.72 18.72 0 0 1-.126.722c-1.626 8.348-7.188 11.234-14.293 11.234H12.76c-.868 0-1.6.631-1.736 1.489L8.646 39.43a.926.926 0 0 0 .915 1.07h6.415c.76 0 1.406-.552 1.524-1.303l.063-.326 1.209-7.664.078-.423a1.543 1.543 0 0 1 1.524-1.303h.96c6.215 0 11.082-2.525 12.504-9.828.594-3.05.287-5.598-1.285-7.389-.475-.541-1.066-.99-1.756-1.354z" fill="#fff"/></g><path d="M30.768 10.893l.031.017c.484-3.086-.003-5.186-1.672-7.088C27.289 1.73 23.97.832 19.722.832H7.393c-.868 0-1.607.631-1.742 1.489L.517 34.875a1.058 1.058 0 0 0 1.045 1.223h7.61l1.852-11.743a1.758 1.758 0 0 1 1.736-1.49h3.618c7.105 0 12.667-2.885 14.293-11.233.046-.236.085-.464.12-.69l-.009-.004-.016-.01v-.02l.002-.015z" fill="#fff"/><path fill-rule="evenodd" clip-rule="evenodd" d="M62.293 9.702h-8.99c-.615 0-1.138.448-1.234 1.055l-3.635 23.052a.75.75 0 0 0 .74.866h4.293A1.25 1.25 0 0 0 54.7 33.62l.981-6.219a1.249 1.249 0 0 1 1.234-1.054h2.845c5.921 0 9.339-2.866 10.232-8.546.402-2.484.016-4.436-1.147-5.802-1.279-1.502-3.544-2.297-6.552-2.297zm1.037 8.42c-.49 3.227-2.956 3.227-5.339 3.227h-1.356l.95-6.026a.75.75 0 0 1 .741-.632h.622c1.622 0 3.155 0 3.945.925.473.553.616 1.372.437 2.505zm21.529-.104h4.304c.46 0 .812.411.74.866L87.576 33.62a1.249 1.249 0 0 1-1.233 1.055h-3.877a.75.75 0 0 1-.74-.867l.192-1.197s-2.126 2.463-5.96 2.463c-2.233 0-4.108-.643-5.421-2.189-1.43-1.682-2.015-4.091-1.603-6.613.79-5.055 4.853-8.659 9.61-8.659 2.074 0 4.152.452 5.084 1.805l.3.437.19-1.204a.749.749 0 0 1 .74-.633zm-6.554 12.49c2.49 0 4.443-1.651 4.86-4.111.188-1.19-.071-2.271-.73-3.044-.656-.767-1.648-1.173-2.87-1.173-2.453 0-4.437 1.705-4.825 4.142-.202 1.196.038 2.27.675 3.024.642.76 1.642 1.162 2.89 1.162z" fill="#fff"/><path d="M112.091 18.018h-4.327c-.414 0-.801.206-1.033.548l-5.969 8.79-2.53-8.447a1.249 1.249 0 0 0-1.196-.89h-4.253a.75.75 0 0 0-.71.99l4.765 13.985-4.481 6.323a.75.75 0 0 0 .611 1.183h4.323c.41 0 .793-.2 1.027-.538l14.389-20.767a.75.75 0 0 0-.616-1.177z" fill="#fff"/><path fill-rule="evenodd" clip-rule="evenodd" d="M127.449 18.121c-.492 3.228-2.956 3.228-5.34 3.228h-1.357l.952-6.026a.749.749 0 0 1 .74-.632h.622c1.622 0 3.155 0 3.945.925.473.553.616 1.372.438 2.505zm-1.038-8.419h-8.99a1.25 1.25 0 0 0-1.234 1.055l-3.635 23.052a.75.75 0 0 0 .74.866h4.613c.43 0 .796-.314.863-.739l1.031-6.535a1.25 1.25 0 0 1 1.234-1.054h2.845c5.921 0 9.339-2.866 10.232-8.546.402-2.484.016-4.436-1.147-5.802-1.279-1.502-3.544-2.297-6.552-2.297zm20.871 16.695c-.416 2.46-2.368 4.111-4.859 4.111-1.249 0-2.248-.402-2.891-1.162-.637-.754-.876-1.828-.674-3.024.387-2.437 2.371-4.142 4.824-4.142 1.222 0 2.215.406 2.87 1.173.659.773.918 1.854.73 3.044zm5.999-8.379h-4.305a.748.748 0 0 0-.74.633l-.189 1.204-.301-.437c-.933-1.353-3.01-1.805-5.085-1.805-4.755 0-8.818 3.604-9.609 8.66-.411 2.52.173 4.93 1.602 6.612 1.314 1.546 3.189 2.19 5.422 2.19 3.834 0 5.96-2.464 5.96-2.464l-.192 1.197a.749.749 0 0 0 .74.867h3.876c.615 0 1.138-.447 1.234-1.055l2.327-14.736a.748.748 0 0 0-.74-.866zm5.074-7.683l-3.69 23.474a.75.75 0 0 0 .74.866h3.711a1.25 1.25 0 0 0 1.234-1.055l3.638-23.051a.75.75 0 0 0-.74-.867h-4.153a.749.749 0 0 0-.74.633zm-129.262-.103a11.848 11.848 0 0 0-.767-.197c-.264-.058-.535-.11-.814-.155a20.163 20.163 0 0 0-3.189-.232H14.66a1.542 1.542 0 0 0-1.524 1.303l-2.054 13.024-.06.38a1.758 1.758 0 0 1 1.737-1.49h3.617c7.105 0 12.668-2.885 14.293-11.233.049-.247.09-.487.127-.722a8.734 8.734 0 0 0-1.336-.564 9.76 9.76 0 0 0-.366-.114z" fill="#fff"/></svg>
